X:1
T:Title
%%score { ( 1 2 ) | ( 3 4 ) }
L:1/8
Q:1/4=72
M:4/4
K:G
V:1 treble nm="Harp"
V:2 treble 
V:3 bass 
V:4 bass 
V:1
"^Adagio" e4- ef/4e/4^d/4e/4 f/4e/4f/4e/4f/4e/4d/4e/4 | f8- | %2
 f/e/^d/e/ f/e/g/f/ a2- a/4c'/4b/4a/4g/a/4f/4 | g4- gc'/b/ c'e | %4
 f4- fb- b/4c'/4b/4a/4b/4g/4a/4b/4 | e4- e/c/A/B/ c/e/d/e/4c/4 | d4- dg- g/4=f/4e/4d/4c/d/4B/4 | %7
 c4- c/d/e/f/ g/f/a/c/ |{c} B4- BB A/4G/4F/G/4F/4E/ | %9
 e-e/4f/4e/4^d/4 e>f g/4f/4g/4f/4g/4f/4g/4f/4 g/4f/4g/4f/4 z/ e/4f/4 | %10
 g4- g/B/A/G/- G/F/4E/4^D/E/ | %11
 c-c/4B/4A/4B/4 c/4d/4c/4B/4c/d/ e/4d/4e/4d/4e/4d/4e/4d/4 e/4d/4e/4d/4 z/ c/4d/4 | %12
 e4- ed/c/ d/B/^G/A/ | d4- d/=f/e/d/ d/4c/4d/4c/4d/4c/4d/4B/4 | c8- | %15
 c2- c/A/^G/A/ c/A/G/A/ E/A/G/A/ | c4- cB ^ce/^d/ | e8- | e^d/f/ a/c'/b/d/ e4- | %19
 e2- e/4f/4e/4^d/4e/4^c/4d/ e/4d/4e/4d/4e/4d/4e/4d/4 e/4d/4e/4d/4 e | e8- | e8- | %22
[Q:1/4=184]"^Presto" e/a/b/c'/ b/c'/b/a/ e/a/b/c'/ b/c'/b/a/ | b/a/^g/a/ b/a/g/a/ db- b/a/g/a/ | %24
 =f/B/c/d/ c/d/c/B/ e/d/e/f/ e/f/e/d/ | c/^G/A/B/ A/G/A/B/ c/a/g/=f/ e/f/e/d/ | %26
 ^c/e/f/g/ f/g/f/e/ ^d/f/g/a/ g/a/g/f/ | g/G/A/B/ A/B/A/G/ =f/^G/A/B/ A/B/A/G/ | %28
 e/A/B/c/ B/c/B/A/ d/B/c/d/ c/d/c/B/ | c/A/^G/A/ E/A/G/A/ c4- | %30
 c/A/^G/A/ ^D/A/G/A/ c/A/G/A/ E/A/G/A/ | c/F/G/A/ G/F/E/^D/ B/E/F/G/ F/E/D/E/ | %32
 A/g/a/b/ a/b/a/g/ A/f/g/a/ g/a/g/f/ | ^A/e/f/g/ f/g/f/e/ ^d4 | z/ B/c/d/ c/d/c/B/ A4 | %35
 z/ G/A/B/ A/B/A/G/ z/ F/G/A/ G/A/G/F/ | z/ E/F/G/ F/G/F/E/ ^D4 | B,/^C/^D/E/ F/G/A/B/ c4 | %38
 ^c4 ^d4 | e/d/c/B/ A/G/F/E/ c/B/A/G/ F/E/^D/^C/ | ^D/B,/F z/ ED/ !fermata![B,E]4 |] %41
V:2
 B z z2 B z z2 | c z z2 c z z2 | c z z2 f z z2 | e z z2 e z z2 | c z z2 d z z2 | B z z2 c z z2 | %6
 A z z2 B z z2 | G z z2 A z z2 | G z z2 G z z2 | ^c z z2 ^d z z2 | e z z2 B z z2 | A z z2 B z z2 | %12
 c z z2 G z z2 | A z z2 B z z2 | A z z2 A z z2 | A z z2 A z z2 | A z z2 A z z2 | B z z2 ^c z z2 | %18
 A z z2 B z z2 | ^c z z2 B z z2 | B z z2 B z z2 | c z z2 d z z2 | c z z2 z4 | x8 | x8 | x8 | x8 | %27
 x8 | x8 | x8 | x8 | x8 | x8 | z4 z/ =A/B/c/ B/c/B/A/ | E4 z/ F/G/A/ G/A/G/F/ | E4 ^D4 | %36
 ^C4 z/ A,/B,/=C/ B,/C/B,/A,/ | z4 z/ F/G/A/ G/A/G/F/ | z/ G/A/B/ A/B/A/G/ z/ A/B/=c/ B/c/B/A/ | %39
 G z z2 z4 | z/ B,3/2- B,A, ^G,4 |] %41
V:3
 E,/G,/A,/B,/ A,/B,/A,/G,/ E,/G,/A,/B,/ A,/B,/A,/G,/ | %1
 E,/A,/B,/C/ B,/C/B,/A,/ E,/A,/B,/C/ B,/C/B,/A,/ | %2
 ^D,/A,/B,/C/ B,/C/B,/A,/ D,/A,/B,/C/ B,/C/B,/A,/ | %3
 E,/G,/A,/B,/ A,/B,/A,/G,/ E,/G,/A,/B,/ A,/B,/A,/G,/ | %4
 E,/F,/G,/A,/ G,/A,/G,/F,/ D,/F,/G,/A,/ G,/A,/G,/F,/ | %5
 D,/E,/F,/G,/ F,/G,/F,/E,/ C,/E,/F,/G,/ F,/G,/F,/E,/ | %6
 C,/F,/G,/A,/ G,/A,/G,/F,/ B,,/G,/A,/B,/ A,/B,/A,/G,/ | %7
 B,,/E,/F,/G,/ F,/G,/F,/E,/ A,,/F,/G,/A,/ G,/A,/G,/F,/ | %8
 G,,/A,/B,/C/ B,/C/B,/A,/ G,/B,/C/D/ C/D/C/B,/ | G,/^C/D/E/ D/E/D/C/ F,/^D/E/F/ E/F/E/D/ | %10
 E,/F,/G,/A,/ G,/A,/G,/F,/ E,/G,/A,/B,/ A,/B,/A,/G,/ | %11
 E,/A,/B,/C/ B,/C/B,/A,/ D,/B,/C/D/ C/D/C/B,/ | %12
 C,/D,/E,/=F,/ E,/F,/E,/D,/ C,/E,/F,/G,/ F,/G,/F,/E,/ | %13
 C,/F,/G,/A,/ G,/A,/G,/F,/ B,,/^G,/A,/B,/ A,/B,/A,/G,/ | %14
 A,/B,/C/D/ C/D/C/B,/ G,/A,/B,/C/ B,/C/B,/A,/ | F,/A,/B,/C/ B,/C/B,/A,/ E,/A,/B,/C/ B,/C/B,/A,/ | %16
 ^D,/A,/B,/C/ B,/C/B,/A,/ D,/F,/G,/A,/ G,/A,/G,/F,/ | %17
 D,/^G,/A,/B,/ A,/B,/A,/G,/ ^C,/E,/F,/=G,/ F,/G,/F,/E,/ | %18
 C,/F,/G,/A,/ G,/A,/G,/F,/ B,,/E,/F,/G,/ F,/G,/F,/E,/ | %19
 ^A,,/E,/F,/G,/ F,/G,/F,/E,/ B,,/F,/G,/A,/ G,/A,/G,/F,/ | %20
 E,/G,/A,/B,/ A,/B,/A,/G,/ D,/^G,/A,/B,/ A,/B,/A,/G,/ | %21
 C,/A,/B,/C/ B,/C/B,/A,/ ^G,/B,/C/D/ C/D/C/B,/ | A,/C/D/E/ D/E/D/C/ A,/C/D/E/ D/E/D/C/ | %23
 A,/D/E/=F/ E/F/E/D/ A,/D/E/F/ E/F/E/D/ | ^G,/D/E/=F/ E/F/E/D/ G,/B,/C/D/ C/D/C/B,/ | %25
 A,/B,/C/D/ E/D/C/B,/ A,/B,/C/D/ C/D/C/B,/ | G,/^C/D/E/ D/E/D/C/ F,/^D/E/F/ E/F/E/=D/ | %27
 E/E,/F,/G,/ F,/G,/F,/E,/ D,/E,/=F,/G,/ F,/G,/F,/E,/ | %28
 C,/F,/^G,/A,/ G,/A,/G,/F,/ B,,/G,/A,/B,/ A,/B,/A,/G,/ | %29
 A,/A,,/B,,/C,/ B,,/C,/B,,/A,,/ G,,/A,,/B,,/C,/ B,,/C,/B,,/A,,/ | %30
 F,,/A,,/B,,/C,/ B,,/C,/B,,/A,,/ E,,/A,,/B,,/C,/ B,,/C,/B,,/A,,/ | %31
 ^D,,/A,,/B,,/C,/ B,,/C,/B,,/A,,/ E,,/G,,/A,,/B,,/ A,,/B,,/A,,/G,,/ | %32
 C,, z z2 z/ A,/B,/C/ B,/C/B,/A,/ | ^C, z z2 B,,/F,/G,/A,/ G,/A,/G,/F,/ | %34
 B,,/G,/A,/B,/ A,/B,/A,/G,/ B,,/A,/B,/C/ B,/C/B,/A,/ | %35
 B,,/B,/C/D/ C/D/C/B,/ B,,/A,/B,/C/ B,/C/B,/A,/ | %36
 B,,/G,/A,/B,/ A,/B,/A,/G,/ B,,/F,/G,/A,/ G,/A,/G,/F,/ | %37
 G,/B,/A,/G,/ F,/E,/^D,/F,/ z/ D,/E,/F,/ E,/F,/E,/D,/ | %38
 z/ E,/F,/G,/ F,/G,/F,/E,/ z/ F,/G,/A,/ G,/A,/G,/F,/ | E, z z2 z4 | B,,4 E,,4 |] %41
V:4
[I:staff -1] G[I:staff +1] z z2[I:staff -1] G[I:staff +1] z z2 | %1
[I:staff -1] A[I:staff +1] z z2[I:staff -1] A[I:staff +1] z z2 | %2
[I:staff -1] A[I:staff +1] z z2[I:staff -1] B[I:staff +1] z z2 | %3
[I:staff -1] B[I:staff +1] z z2[I:staff -1] B[I:staff +1] z z2 | %4
[I:staff -1] A[I:staff +1] z z2[I:staff -1] B[I:staff +1] z z2 | %5
[I:staff -1] G[I:staff +1] z z2[I:staff -1] A[I:staff +1] z z2 | %6
[I:staff -1] F[I:staff +1] z z2[I:staff -1] G[I:staff +1] z z2 | %7
[I:staff -1] E[I:staff +1] z z2[I:staff -1] F[I:staff +1] z z2 | %8
[I:staff -1] D[I:staff +1] z z2[I:staff -1] D[I:staff +1] z z2 | %9
[I:staff -1] A[I:staff +1] z z2[I:staff -1] A[I:staff +1] z z2 | %10
[I:staff -1] B[I:staff +1] z z2[I:staff -1] G[I:staff +1] z z2 | %11
[I:staff -1] =F[I:staff +1] z z2[I:staff -1] F[I:staff +1] z z2 | %12
[I:staff -1] G[I:staff +1] z z2[I:staff -1] E[I:staff +1] z z2 | %13
[I:staff -1] ^F[I:staff +1] z z2[I:staff -1] ^G[I:staff +1] z z2 | %14
[I:staff -1] E[I:staff +1] z z2[I:staff -1] E[I:staff +1] z z2 | %15
[I:staff -1] ^D[I:staff +1] z z2[I:staff -1] E[I:staff +1] z z2 | %16
[I:staff -1] F[I:staff +1] z z2[I:staff -1] F[I:staff +1] z z2 | %17
[I:staff -1] ^G[I:staff +1] z z2[I:staff -1] ^A[I:staff +1] z z2 | %18
[I:staff -1] F[I:staff +1] z z2[I:staff -1] G[I:staff +1] z z2 | %19
[I:staff -1] G[I:staff +1] z z2[I:staff -1] F[I:staff +1] z z2 | %20
[I:staff -1] G[I:staff +1] z z2[I:staff -1] ^G[I:staff +1] z z2 | %21
[I:staff -1] A[I:staff +1] z z2[I:staff -1] B[I:staff +1] z z2 | x8 | x8 | x8 | x8 | x8 | x8 | x8 | %29
 x8 | x8 | x8 | x8 | x8 | x8 | x8 | x8 | x8 | x8 | C, z z2 A,,/B,,/C,/D,/ E,/F,/G,/A,/- | %40
 A,>A, G,F, !fermata!E,4 |] %41

